images/svg/infographic-holiday.svg

<svg width="90" height="90" viewBox="0 0 90 90" fill="none" xmlns="http://www.w3.org/2000/svg">
<g clip-path="url(#clip0_334_323)">
<path fill-rule="evenodd" clip-rule="evenodd" d="M80.1891 9.81101L77.2402 9.58417C75.8224 9.47075 44.0643 7.42916 29.6031 21.8904C17.0133 34.5369 20.2458 56.9944 21.6069 63.6295L9.41406 75.7656L14.1778 80.5293L26.3139 68.3932C30.9642 69.3006 35.6712 69.7543 40.3781 69.7543C49.4519 69.7543 60.5672 67.8828 68.053 60.3403C82.571 45.9358 80.4727 14.1777 80.416 12.7033L80.1891 9.81101ZM63.346 55.6333C55.0662 63.9131 40.5483 63.5161 32.2685 62.3252L40.1513 54.6125H55.5766V47.8639H46.8999L53.5918 41.1154H65.7279V34.3668H60.3403L68.053 26.6541L63.346 21.8904L55.5766 29.6598V24.2723H48.8848V36.3517L42.1362 43.1002V34.3668H35.3876V49.8488L27.5048 57.7316C26.484 49.4518 26.1437 34.9339 34.2534 26.6541C44.2912 16.7864 65.7279 16.1059 73.7808 16.2193C73.8942 24.2723 73.2137 45.6522 63.346 55.5766V55.6333Z" fill="url(#paint0_linear_334_323)"/>
</g>
<defs>
<linearGradient id="paint0_linear_334_323" x1="7.21653e-05" y1="90" x2="84.5558" y2="4.2276e-05" gradientUnits="userSpaceOnUse">
<stop stop-color="#28B1A1"/>
<stop offset="0.6" stop-color="#57DA98"/>
<stop offset="1" stop-color="#9AE974"/>
</linearGradient>
<clipPath id="clip0_334_323">
<rect width="90" height="90" fill="white"/>
</clipPath>
</defs>
</svg>

<svg width="90" height="90" fill="none" xmlns="http://www.w3.org/2000/svg"><g clip-path="url(#a)"><path fill-rule="evenodd" clip-rule="evenodd" d="m80.19 9.811-2.95-.227C75.822 9.471 44.064 7.43 29.603 21.89c-12.59 12.647-9.357 35.104-7.996 41.74L9.414 75.766l4.764 4.763 12.136-12.136a73.414 73.414 0 0 0 14.064 1.361c9.074 0 20.19-1.871 27.675-9.414 14.518-14.404 12.42-46.162 12.363-47.637l-.227-2.892zM63.345 55.633c-8.28 8.28-22.798 7.883-31.077 6.692l7.882-7.713h15.426v-6.748H46.9l6.692-6.749h12.136v-6.748H60.34l7.713-7.713-4.707-4.764-7.77 7.77v-5.388h-6.691v12.08L42.136 43.1v-8.733h-6.748v15.482l-7.883 7.883c-1.021-8.28-1.361-22.798 6.748-31.078 10.038-9.868 31.475-10.548 39.528-10.435.113 8.053-.567 29.433-10.435 39.358v.056z" fill="url(#b)"/></g><defs><linearGradient id="b" x1="0" y1="90" x2="84.556" y2="0" gradientUnits="userSpaceOnUse"><stop stop-color="#28B1A1"/><stop offset=".6" stop-color="#57DA98"/><stop offset="1" stop-color="#9AE974"/></linearGradient><clipPath id="a"><path fill="#fff" d="M0 0h90v90H0z"/></clipPath></defs></svg>
